material/.icons/material/clipboard-list-outline.svg

<svg xmlns="http://www.w3.org/2000/svg" viewBox="0 0 24 24"><path d="M19 3h-4.18C14.4 1.84 13.3 1 12 1s-2.4.84-2.82 2H5c-1.1 0-2 .9-2 2v14c0 1.1.9 2 2 2h14c1.1 0 2-.9 2-2V5c0-1.1-.9-2-2-2m-7 0c.55 0 1 .45 1 1s-.45 1-1 1-1-.45-1-1 .45-1 1-1M7 7h10V5h2v14H5V5h2v2m5 10v-2h5v2h-5m0-6V9h5v2h-5m-4 1V9H7V8h2v4H8m1.25 2c.41 0 .75.34.75.75 0 .2-.08.39-.21.52L8.12 17H10v1H7v-.92L9 15H7v-1h2.25"/></svg>

<?xml version="1.0" encoding="UTF-8"?><!DOCTYPE svg PUBLIC "-//W3C//DTD SVG 1.1//EN" "http://www.w3.org/Graphics/SVG/1.1/DTD/svg11.dtd"><svg xmlns="http://www.w3.org/2000/svg" xmlns:xlink="http://www.w3.org/1999/xlink" version="1.1" id="mdi-clipboard-list-outline" width="24" height="24" viewBox="0 0 24 24"><path d="M19 3H14.82C14.4 1.84 13.3 1 12 1S9.6 1.84 9.18 3H5C3.9 3 3 3.9 3 5V19C3 20.1 3.9 21 5 21H19C20.1 21 21 20.1 21 19V5C21 3.9 20.1 3 19 3M12 3C12.55 3 13 3.45 13 4S12.55 5 12 5 11 4.55 11 4 11.45 3 12 3M7 7H17V5H19V19H5V5H7V7M12 17V15H17V17H12M12 11V9H17V11H12M8 12V9H7V8H9V12H8M9.25 14C9.66 14 10 14.34 10 14.75C10 14.95 9.92 15.14 9.79 15.27L8.12 17H10V18H7V17.08L9 15H7V14H9.25" /></svg>
